X:1
T:Title
%%score { 1 | 2 }
L:1/8
M:4/4
K:E
V:1 treble nm="Grand Piano"
V:2 bass 
V:1
 z4 z2[Q:1/4=100] EF | G3 G A2 G2 | [EG]2 [DF]4 [DF][EG] | [FA]2 [Ac]2 [GB]3 [FA] |[M:3/4] G6 | %5
[M:1/4] EF |[M:4/4] G3 G A2 G2 | [EG]2 [DF]4 [DF][EG] | [FA]2 [Ac]2 [GB]3 [FA] |[M:3/4] G6 | %10
[M:1/4] EE |[M:4/4] c3 c B2 A2 | G2 B4 BB | c3 B G2 E2 |[M:3/4] [DB]6 |[M:1/4] [B,DG][A,DF] | %16
[M:4/4] [G,CE]3 [G,CE] [B,DF]2 [=DEG]2 | [CEA]2 [Ec]4 [Ec][Ec] | [EB]2 [G,E]2 [B,EG]3 [A,DF] | %19
[M:3/4] [G,E]6 |] %20
V:2
 z4 z2 [E,G,][E,A,E] | [E,B,E]3 [E,B,E] [E,CE]2 [E,B,E]2 | [B,,B,]2 [B,,B,]4 [B,,B,][B,,B,] | %3
 [B,,B,]2 [B,,B,]2 [C,B,]3 [D,B,] |[M:3/4] [E,B,E]6 |[M:1/4] [E,G,][E,A,E] | %6
[M:4/4] [E,B,E]3 [E,B,E] [E,CE]2 [E,B,E]2 | [B,,B,]2 [B,,B,]4 [B,,B,][B,,B,] | %8
 [B,,B,]2 [B,,B,]2 [C,B,]3 [D,B,] |[M:3/4] [E,B,E]6 |[M:1/4] [E,G,][E,G,] | %11
[M:4/4] [A,E]3 [A,E] [G,B,E]2 [F,B,E]2 | [E,B,E]2 [E,G,E]4 [E,G,E][E,G,E] | %13
 [A,E]3 [G,B,E] [E,B,E]2 [E,G,]2 |[M:3/4] [B,,F,]6 |[M:1/4] B,,B,, |[M:4/4] C,3 C, B,,2 E,2 | %17
 A,,2 [A,,A,]4 [A,,A,][A,,A,] | [B,,G,]2 B,,2 B,,3 B,, |[M:3/4] E,6 |] %20

